src/pages/Main/ui/TimeLine/images/rocket.svg

<svg fill="none" height="30" viewBox="0 0 29 30" width="29" xmlns="http://www.w3.org/2000/svg" xmlns:xlink="http://www.w3.org/1999/xlink"><clipPath id="a"><path d="m0 0h29v30h-29z"/></clipPath><g clip-path="url(#a)" fill="#fff"><path d="m9.71918 27.3993c-.17913 0-.32372-.1454-.32372-.3255 0-.6402-.26977-1.2554-.74132-1.6861-.41653-.3819-.95714-.5913-1.52149-.5913-.29351 0-.57515.0542-.83844.1616-.16618.0673-.35501-.013-.42192-.179-.0669-.1671.01295-.3569.17805-.4242.34099-.1389.70463-.2094 1.08123-.2094.72621 0 1.42221.2701 1.95743.7616.60536.5545.9528 1.3444.9528 2.1679 0 .1801-.14458.3255-.3237.3255z"/><path d="m7.13273 30c-1.60566 0-2.91349-1.3128-2.91349-2.9262 0-.2344.02805-.4676.08417-.6933.04316-.1747.21797-.281.3917-.2376s.27948.2191.23631.3938c-.04316.1747-.06474.3548-.06474.5371 0 1.2542 1.01648 2.2752 2.26605 2.2752.17912 0 .32372.1454.32372.3255s-.1446.3255-.32372.3255z"/><path d="m12.2269 30.0001h-8.70482c-1.94232 0-3.52208-1.5885-3.52208-3.5415 0-1.9529 1.57976-3.5414 3.52208-3.5414 1.16972 0 2.26065.5816 2.91889 1.5548.39494.5881.6032 1.2749.6032 1.9866 0 .1802-.1446.3255-.32372.3255-.17913 0-.32372-.1453-.32372-.3255 0-.5815-.1705-1.1414-.49206-1.6209-.53738-.7942-1.42761-1.2695-2.38259-1.2695-1.58515 0-2.874638 1.2966-2.874638 2.8904 0 1.5939 1.289488 2.8905 2.874638 2.8905h8.70482c.1792 0 .3238.1454.3238.3255s-.1446.3255-.3238.3255z"/><path d="m19.2808 27.3994c-.1792 0-.3238-.1454-.3238-.3255 0-.8224.3475-1.6134.9529-2.1678.5362-.4915 1.2312-.7617 1.9574-.7617.3766 0 .7402.0705 1.0812.2094.1662.0673.246.2572.1781.4242-.0669.1671-.2558.2474-.422.1791-.2633-.1074-.5449-.1617-.8384-.1617-.5643 0-1.105.2105-1.5215.5913-.4715.4318-.7413 1.046-.7413 1.6861 0 .1801-.1446.3255-.3237.3255z"/><path d="m21.8672 30c-.1791 0-.3237-.1454-.3237-.3255s.1446-.3255.3237-.3255c1.2495 0 2.266-1.0209 2.266-2.2752 0-.1812-.0216-.3624-.0647-.5371-.0432-.1746.0626-.3504.2363-.3938.1737-.0423.3496.0629.3917.2376.055.2257.0842.459.0842.6933 0 1.6134-1.3068 2.9262-2.9135 2.9262z"/><path d="m25.4778 30.0001h-8.7049c-.1791 0-.3237-.1454-.3237-.3255s.1446-.3255.3237-.3255h8.7049c1.5851 0 2.8746-1.2966 2.8746-2.8905 0-1.5938-1.2895-2.8904-2.8746-2.8904-.955 0-1.8452.4753-2.3826 1.2695-.3216.4785-.491 1.0394-.491 1.6209 0 .1802-.1446.3255-.3237.3255s-.3237-.1453-.3237-.3255c0-.7117.2083-1.3985.6032-1.9855.6582-.9743 1.7492-1.5559 2.9189-1.5559 1.9423 0 3.5221 1.5885 3.5221 3.5414 0 1.953-1.5798 3.5415-3.5221 3.5415z"/><path d="m10.0139 21.2538h-5.73744c-.09388 0-.18236-.0401-.24387-.1106-.06151-.0706-.08956-.1649-.07661-.2572.6291-4.724 2.78076-6.8018 5.31873-8.8492.09388-.0759.22337-.0933.33344-.0434.11006.0489.18452.1563.19207.2778l.53738 8.6387c.0054.0901-.0259.1779-.0874.243s-.1468.1031-.2363.1031zm-5.363-.651h5.01875l-.47695-7.6611c-2.14519 1.7837-3.92889 3.7281-4.5418 7.6611z"/><path d="m19.1666 18.4134h-9.32854c-.17049 0-.31185-.1335-.32264-.3049l-.42191-6.7552c0-4.33124 1.49989-7.5873 5.17949-11.2589058.1263-.1258589.3292-.1258589.4565 0 3.6796 3.6716058 5.1806 6.9276658 5.1806 11.2383058l-.4208 6.7758c-.0108.1714-.1522.3049-.3227.3049zm-9.0242-.651h8.7199l.4004-6.4503c0-4.00903-1.3834-7.08389-4.762-10.526567-3.3775 3.441587-4.76083 6.517537-4.76083 10.546067l.40143 6.4297z"/><path d="m24.7258 21.2539h-5.7374c-.0896 0-.1748-.0368-.2363-.103-.0615-.0651-.0928-.1541-.0874-.2431l.5373-8.6387c.0076-.1215.082-.2278.1921-.2777.1101-.0488.2396-.0326.3334.0434 2.5369 2.0463 4.6886 4.1251 5.3177 8.8492.0129.0933-.0151.1866-.0766.2571s-.15.1107-.2439.1107zm-5.3932-.6509h5.0188c-.614-3.9331-2.3967-5.8764-4.5418-7.6612z"/><path d="m14.5018 25.174c-.0323 0-.0658-.0055-.0971-.0152-.4758-.1508-1.5182-1.2543-1.5182-3.5545 0-.205.0151-.4068.0442-.5978.0281-.1779.1942-.2994.3701-.2712.177.0271.2979.1942.2698.3721-.0248.1584-.0367.3266-.0367.498 0 1.7165.6615 2.6376.9679 2.8753.3054-.2387.9669-1.1621.9669-2.8753 0-.1833-.0119-.3504-.0345-.498-.0281-.1779.0928-.3439.2697-.3721.1759-.0272.3421.0933.3701.2712.0281.1801.0421.3819.0421.5989 0 2.298-1.0402 3.4036-1.515 3.5545-.0313.0097-.0647.0152-.0982.0152z"/><path d="m14.5006 10.4713c-1.161 0-2.1063-.94939-2.1063-2.11792 0-1.16854.9442-2.11791 2.1063-2.11791 1.1622 0 2.1064.94937 2.1064 2.11791 0 1.16853-.9453 2.11792-2.1064 2.11792zm0-3.58375c-.8039 0-1.4589.65751-1.4589 1.46691s.6539 1.46691 1.4589 1.46691 1.4589-.65751 1.4589-1.46691-.6539-1.46691-1.4589-1.46691z"/></g></svg>

<svg width="29" height="30" viewBox="0 0 29 30" fill="none" xmlns="http://www.w3.org/2000/svg">
    <g clip-path="url(#clip0_7_291)">
        <path d="M9.71918 27.3993C9.54005 27.3993 9.39546 27.2539 9.39546 27.0738C9.39546 26.4336 9.12569 25.8184 8.65414 25.3877C8.23761 25.0058 7.697 24.7964 7.13265 24.7964C6.83914 24.7964 6.5575 24.8506 6.29421 24.958C6.12803 25.0253 5.9392 24.945 5.87229 24.779C5.80539 24.6119 5.88524 24.4221 6.05034 24.3548C6.39133 24.2159 6.75497 24.1454 7.13157 24.1454C7.85778 24.1454 8.55378 24.4155 9.089 24.907C9.69436 25.4615 10.0418 26.2514 10.0418 27.0749C10.0418 27.255 9.89722 27.4004 9.7181 27.4004L9.71918 27.3993Z" fill="white"/>
        <path d="M7.13273 30C5.52707 30 4.21924 28.6872 4.21924 27.0738C4.21924 26.8394 4.24729 26.6062 4.30341 26.3805C4.34657 26.2058 4.52138 26.0995 4.69511 26.1429C4.86884 26.1863 4.97459 26.362 4.93142 26.5367C4.88826 26.7114 4.86668 26.8915 4.86668 27.0738C4.86668 28.328 5.88316 29.349 7.13273 29.349C7.31185 29.349 7.45645 29.4944 7.45645 29.6745C7.45645 29.8546 7.31185 30 7.13273 30Z" fill="white"/>
        <path d="M12.2269 30.0001H3.52208C1.57976 30.0001 0 28.4116 0 26.4586C0 24.5057 1.57976 22.9172 3.52208 22.9172C4.6918 22.9172 5.78273 23.4988 6.44097 24.472C6.83591 25.0601 7.04417 25.7469 7.04417 26.4586C7.04417 26.6388 6.89957 26.7841 6.72045 26.7841C6.54132 26.7841 6.39673 26.6388 6.39673 26.4586C6.39673 25.8771 6.22623 25.3172 5.90467 24.8377C5.36729 24.0435 4.47706 23.5682 3.52208 23.5682C1.93693 23.5682 0.647442 24.8648 0.647442 26.4586C0.647442 28.0525 1.93693 29.3491 3.52208 29.3491H12.2269C12.4061 29.3491 12.5507 29.4945 12.5507 29.6746C12.5507 29.8547 12.4061 30.0001 12.2269 30.0001Z" fill="white"/>
        <path d="M19.2808 27.3994C19.1016 27.3994 18.957 27.254 18.957 27.0739C18.957 26.2515 19.3045 25.4605 19.9099 24.9061C20.4461 24.4146 21.1411 24.1444 21.8673 24.1444C22.2439 24.1444 22.6075 24.2149 22.9485 24.3538C23.1147 24.4211 23.1945 24.611 23.1266 24.778C23.0597 24.9451 22.8708 25.0254 22.7046 24.9571C22.4413 24.8497 22.1597 24.7954 21.8662 24.7954C21.3019 24.7954 20.7612 25.0059 20.3447 25.3867C19.8732 25.8185 19.6034 26.4327 19.6034 27.0728C19.6034 27.2529 19.4588 27.3983 19.2797 27.3983L19.2808 27.3994Z" fill="white"/>
        <path d="M21.8672 30C21.6881 30 21.5435 29.8546 21.5435 29.6745C21.5435 29.4944 21.6881 29.349 21.8672 29.349C23.1167 29.349 24.1332 28.3281 24.1332 27.0738C24.1332 26.8926 24.1116 26.7114 24.0685 26.5367C24.0253 26.3621 24.1311 26.1863 24.3048 26.1429C24.4785 26.1006 24.6544 26.2058 24.6965 26.3805C24.7515 26.6062 24.7807 26.8395 24.7807 27.0738C24.7807 28.6872 23.4739 30 21.8672 30Z" fill="white"/>
        <path d="M25.4778 30.0001H16.7729C16.5938 30.0001 16.4492 29.8547 16.4492 29.6746C16.4492 29.4945 16.5938 29.3491 16.7729 29.3491H25.4778C27.0629 29.3491 28.3524 28.0525 28.3524 26.4586C28.3524 24.8648 27.0629 23.5682 25.4778 23.5682C24.5228 23.5682 23.6326 24.0435 23.0952 24.8377C22.7736 25.3162 22.6042 25.8771 22.6042 26.4586C22.6042 26.6388 22.4596 26.7841 22.2805 26.7841C22.1014 26.7841 21.9568 26.6388 21.9568 26.4586C21.9568 25.7469 22.1651 25.0601 22.56 24.4731C23.2182 23.4988 24.3092 22.9172 25.4789 22.9172C27.4212 22.9172 29.001 24.5057 29.001 26.4586C29.001 28.4116 27.4212 30.0001 25.4789 30.0001H25.4778Z" fill="white"/>
        <path d="M10.0139 21.2538H4.27646C4.18258 21.2538 4.0941 21.2137 4.03259 21.1432C3.97108 21.0726 3.94303 20.9783 3.95598 20.886C4.58508 16.162 6.73674 14.0842 9.27471 12.0368C9.36859 11.9609 9.49808 11.9435 9.60815 11.9934C9.71821 12.0423 9.79267 12.1497 9.80022 12.2712L10.3376 20.9099C10.343 21 10.3117 21.0878 10.2502 21.1529C10.1887 21.218 10.1034 21.256 10.0139 21.256V21.2538ZM4.6509 20.6028H9.66965L9.1927 12.9417C7.04751 14.7254 5.26381 16.6698 4.6509 20.6028Z" fill="white"/>
        <path d="M19.1666 18.4134H9.83806C9.66757 18.4134 9.52621 18.2799 9.51542 18.1085L9.09351 11.3533C9.09351 7.02206 10.5934 3.766 14.273 0.0943942C14.3993 -0.0314647 14.6022 -0.0314647 14.7295 0.0943942C18.4091 3.766 19.9101 7.02206 19.9101 11.3327L19.4893 18.1085C19.4785 18.2799 19.3371 18.4134 19.1666 18.4134ZM10.1424 17.7624H18.8623L19.2627 11.3121C19.2627 7.30307 17.8793 4.22821 14.5007 0.785533C11.1232 4.22712 9.73987 7.30307 9.73987 11.3316L10.1413 17.7613L10.1424 17.7624Z" fill="white"/>
        <path d="M24.7258 21.2539H18.9884C18.8988 21.2539 18.8136 21.2171 18.7521 21.1509C18.6906 21.0858 18.6593 20.9968 18.6647 20.9078L19.202 12.2691C19.2096 12.1476 19.284 12.0413 19.3941 11.9914C19.5042 11.9426 19.6337 11.9588 19.7275 12.0348C22.2644 14.0811 24.4161 16.1599 25.0452 20.884C25.0581 20.9773 25.0301 21.0706 24.9686 21.1411C24.9071 21.2116 24.8186 21.2518 24.7247 21.2518L24.7258 21.2539ZM19.3326 20.603H24.3514C23.7374 16.6699 21.9547 14.7266 19.8096 12.9418L19.3326 20.603Z" fill="white"/>
        <path d="M14.5018 25.174C14.4695 25.174 14.436 25.1685 14.4047 25.1588C13.9289 25.008 12.8865 23.9045 12.8865 21.6043C12.8865 21.3993 12.9016 21.1975 12.9307 21.0065C12.9588 20.8286 13.1249 20.7071 13.3008 20.7353C13.4778 20.7624 13.5987 20.9295 13.5706 21.1074C13.5458 21.2658 13.5339 21.434 13.5339 21.6054C13.5339 23.3219 14.1954 24.243 14.5018 24.4807C14.8072 24.242 15.4687 23.3186 15.4687 21.6054C15.4687 21.4221 15.4568 21.255 15.4342 21.1074C15.4061 20.9295 15.527 20.7635 15.7039 20.7353C15.8798 20.7081 16.046 20.8286 16.074 21.0065C16.1021 21.1866 16.1161 21.3884 16.1161 21.6054C16.1161 23.9034 15.0759 25.009 14.6011 25.1599C14.5698 25.1696 14.5364 25.1751 14.5029 25.1751L14.5018 25.174Z" fill="white"/>
        <path d="M14.5006 10.4713C13.3396 10.4713 12.3943 9.52191 12.3943 8.35338C12.3943 7.18484 13.3385 6.23547 14.5006 6.23547C15.6628 6.23547 16.607 7.18484 16.607 8.35338C16.607 9.52191 15.6617 10.4713 14.5006 10.4713ZM14.5006 6.88755C13.6967 6.88755 13.0417 7.54506 13.0417 8.35446C13.0417 9.16386 13.6956 9.82137 14.5006 9.82137C15.3056 9.82137 15.9595 9.16386 15.9595 8.35446C15.9595 7.54506 15.3056 6.88755 14.5006 6.88755Z" fill="white"/>
    </g>
    <defs>
        <clipPath id="clip0_7_291">
            <rect width="29" height="30" fill="white"/>
        </clipPath>
    </defs>
</svg>
